icons-common/bluetooth.svg

<svg height="1em" width="auto" viewBox="0 0 105 105" fill="currentColor" xmlns="http://www.w3.org/2000/svg">
    <path d="M37.1443 40.292C37.1443 40.292 71.2674 63.3182 71.311 63.3608C73.6613 64.8959 73.6177 68.4777 71.2239 69.9275L50.6804 83.0183C48.5912 84.4255 45.5445 82.8477 45.5445 80.4172C45.1093 71.1215 45.0657 61.8684 44.9787 52.5726C45.0222 43.2769 45.0657 33.9812 45.5445 24.6854C45.588 22.2122 48.6347 20.7198 50.6804 22.0843L71.2674 35.1751C73.6613 36.6249 73.7048 40.2494 71.398 41.7418L37.2313 64.8106C35.7515 65.834 33.7059 65.4502 32.7048 64.0004C31.7037 62.5933 32.0519 60.6744 33.4447 59.651L66.3927 35.2177V41.8271L46.8938 27.3292L52.0296 24.7281C52.4649 34.0238 52.5084 43.2769 52.5519 52.5726C52.5084 61.8684 52.4649 71.1215 52.0296 80.4172L46.8938 77.8161L66.4362 63.3182V69.9275L33.3141 45.4516C30.0063 42.9784 33.6623 37.9468 37.1443 40.2494V40.292Z"
          />
</svg>

<svg xmlns="http://www.w3.org/2000/svg" width="auto" height="1em" fill="currentColor" viewBox="0 0 105 105">
    <path d="M37.144 40.292s34.123 23.026 34.167 23.069c2.35 1.535 2.307 5.117-.087 6.566L50.68 83.018c-2.089 1.407-5.135-.17-5.135-2.6-.436-9.297-.48-18.55-.566-27.845.043-9.296.087-18.592.566-27.888.043-2.473 3.09-3.965 5.135-2.6l20.587 13.09c2.394 1.45 2.438 5.074.131 6.567L37.231 64.81c-1.48 1.023-3.525.64-4.526-.81-1.001-1.408-.653-3.327.74-4.35l32.948-24.433v6.61l-19.5-14.499 5.137-2.6c.435 9.295.478 18.548.522 27.844-.044 9.295-.087 18.548-.522 27.844l-5.136-2.6 19.542-14.499v6.61L33.314 45.451c-3.308-2.474.348-7.505 3.83-5.203z"/>
</svg>
